X:1738
T:No 5 Galopade
T:efter Nils Persson
R:Galopp
S:Efter Nils Persson, Vollsjö
O:Vollsjö, Skåne
B:nr 5 ur FMK M89a
Z:ABC-transkribering av Åke Persson
M:2/4
L:1/8
Q:1/4=150
K:D
A | Addd | dcBA | ccBB | E2>E2 | Eccc | cBAG | BBAA | F2>F2 | 
Addd | dcBA | AAAA | f2>f2 | eeee | eABc | d2 fe | d2 z :| 
(DF) | AA BB | A2 (DF) | AA BB | A2 AA | gg ee | c2 AA | ffff | d2 (DF) |
AA BB | A2 (DF) | AA BB | A2 AA | gg ee | cc AA | d2 fe | d2 z :|
(:musicend:)

(:music:)
